images/box-note.svg

<svg width="200" height="200" viewBox="0 0 200 200" version="1.1" xmlns="http://www.w3.org/2000/svg" xmlns:xlink="http://www.w3.org/1999/xlink">
<title>box-note</title>
<desc>Created using Figma</desc>
<g id="Canvas" transform="translate(-506 468)">
<clipPath id="clip-0" clip-rule="evenodd">
<path d="M 506 -468L 706 -468L 706 -268L 506 -268L 506 -468Z" fill="#FFFFFF"/>
</clipPath>
<g id="box-note" clip-path="url(#clip-0)">
<g id="Ellipse">
<use xlink:href="#path0_fill" transform="translate(506 -468)" fill="#27AE60"/>
<mask id="mask0_outline_ins">
<use xlink:href="#path0_fill" fill="white" transform="translate(506 -468)"/>
</mask>
<g mask="url(#mask0_outline_ins)">
<use xlink:href="#path1_stroke_2x" transform="translate(506 -468)"/>
</g>
</g>
<g id="pushpin">
<g id="Union">
<use xlink:href="#path2_fill" transform="translate(568.987 -417.426)" fill="#FFFFFF"/>
</g>
<g id="Vector">
<use xlink:href="#path3_fill" transform="translate(556 -422)"/>
</g>
</g>
</g>
</g>
<defs>
<path id="path0_fill" d="M 200 100C 200 155.228 155.228 200 100 200C 44.7715 200 0 155.228 0 100C 0 44.7715 44.7715 0 100 0C 155.228 0 200 44.7715 200 100Z"/>
<path id="path1_stroke_2x" d="M 193 100C 193 151.362 151.362 193 100 193L 100 207C 159.094 207 207 159.094 207 100L 193 100ZM 100 193C 48.6375 193 7 151.362 7 100L -7 100C -7 159.094 40.9055 207 100 207L 100 193ZM 7 100C 7 48.6375 48.6375 7 100 7L 100 -7C 40.9055 -7 -7 40.9055 -7 100L 7 100ZM 100 7C 151.362 7 193 48.6375 193 100L 207 100C 207 40.9055 159.094 -7 100 -7L 100 7Z"/>
<path id="path2_fill" d="M 57.6888 1.96749C 55.0656 -0.655831 50.8123 -0.655831 48.189 1.96749C 45.5657 4.59079 45.5657 8.84399 48.189 11.4673L 49.7582 13.0365L 23.432 39.3628L 21.8627 37.7936C 19.2395 35.1703 14.9862 35.1703 12.3629 37.7936C 9.73962 40.4169 9.73962 44.6701 12.3629 47.2934L 21.2677 56.1982L 0 84.9915L 29.4476 64.3781L 37.6958 72.6263C 40.3191 75.2496 44.5723 75.2496 47.1956 72.6263C 49.8189 70.003 49.8189 65.7498 47.1956 63.1265L 45.9783 61.9092L 72.3046 35.5829L 73.5219 36.8002C 76.1452 39.4235 80.3984 39.4235 83.0217 36.8002C 85.645 34.1769 85.645 29.9237 83.0217 27.3004L 81.8044 26.0831L 81.8321 26.0554L 59.2857 3.50908L 59.2581 3.53672L 57.6888 1.96749Z"/>
<path id="path3_fill" d="M 101.261 33.269L 69.7342 1.7394C 68.6144 0.619513 67.1134 -3.29492e-07 65.5231 -3.29492e-07C 63.9328 -3.29492e-07 62.4318 0.619513 61.312 1.7394L 59.5668 3.48476C 57.8395 5.21225 56.5887 8.23238 56.5887 10.6747L 56.5887 16.6315C 56.5887 17.4774 55.9573 19.0083 55.3557 19.61L 38.7198 36.2475C 38.1183 36.8491 36.5875 37.4805 35.7417 37.4805L 29.7854 37.4805C 27.3434 37.4805 24.3235 38.7315 22.5962 40.459L 20.851 42.2043C 18.5281 44.5275 18.5281 48.3041 20.851 50.6273L 30.1011 59.8783L 0.617534 98.2107C -0.293776 99.3961 -0.186563 101.076 0.873654 102.13C 1.45141 102.708 2.21382 103 2.98218 103C 3.6195 103 4.25682 102.797 4.79884 102.38L 43.1275 72.894L 52.3776 82.145C 53.4974 83.2649 54.9984 83.8844 56.5887 83.8844C 58.179 83.8844 59.68 83.2649 60.7998 82.145L 62.545 80.3997C 64.2723 78.6722 65.5231 75.6521 65.5231 73.2098L 65.5231 67.2529C 65.5231 66.407 66.1545 64.8761 66.7561 64.2745L 83.3919 47.637C 83.9935 47.0353 85.5243 46.4039 86.3701 46.4039L 92.3264 46.4039C 94.7684 46.4039 97.7883 45.153 99.5156 43.4255L 101.261 41.6801C 102.381 40.5602 103 39.0591 103 37.4686C 103 35.8781 102.381 34.377 101.261 33.2571L 101.261 33.269ZM 19.2666 83.7415L 34.3539 64.1256L 38.8807 68.6528L 19.2666 83.7415L 19.2666 83.7415ZM 95.3045 39.2259C 94.7029 39.8275 93.1721 40.459 92.3264 40.459L 86.3701 40.459C 83.928 40.459 80.9082 41.7099 79.1809 43.4374L 62.545 60.0749C 60.8176 61.8024 59.5668 64.8225 59.5668 67.2648L 59.5668 73.2217C 59.5668 74.0675 58.9355 75.5985 58.3339 76.2001L 56.5946 77.9395L 56.5887 77.9395L 56.5887 77.9455L 25.0621 46.4158L 26.8073 44.6705C 27.4089 44.0688 28.9396 43.4374 29.7854 43.4374L 35.7417 43.4374C 38.1838 43.4374 41.2036 42.1865 42.9309 40.459L 59.5668 23.8215C 61.2941 22.094 62.545 19.0739 62.545 16.6315L 62.545 10.6747C 62.545 9.82881 63.1763 8.2979 63.7779 7.69626L 65.5231 5.9509L 97.0497 37.4805L 95.3045 39.2259Z"/>
</defs>
<!-- Code injected by live-server -->
<script type="text/javascript">
	// <![CDATA[  <-- For SVG support
	if ('WebSocket' in window) {
		(function () {
			function refreshCSS() {
				var sheets = [].slice.call(document.getElementsByTagName("link"));
				var head = document.getElementsByTagName("head")[0];
				for (var i = 0; i < sheets.length; ++i) {
					var elem = sheets[i];
					head.removeChild(elem);
					var rel = elem.rel;
					if (elem.href && typeof rel != "string" || rel.length == 0 || rel.toLowerCase() == "stylesheet") {
						var url = elem.href.replace(/(&|\?)_cacheOverride=\d+/, '');
						elem.href = url + (url.indexOf('?') >= 0 ? '&' : '?') + '_cacheOverride=' + (new Date().valueOf());
					}
					head.appendChild(elem);
				}
			}
			var protocol = window.location.protocol === 'http:' ? 'ws://' : 'wss://';
			var address = protocol + window.location.host + window.location.pathname + '/ws';
			var socket = new WebSocket(address);
			socket.onmessage = function (msg) {
				if (msg.data == 'reload') window.location.reload();
				else if (msg.data == 'refreshcss') refreshCSS();
			};
			if (sessionStorage && !sessionStorage.getItem('IsThisFirstTime_Log_From_LiveServer')) {
				console.log('Live reload enabled.');
				sessionStorage.setItem('IsThisFirstTime_Log_From_LiveServer', true);
			}
		})();
	}
	else {
		console.error('Upgrade your browser. This Browser is NOT supported WebSocket for Live-Reloading.');
	}
	// ]]>
</script></svg>

<svg xmlns="http://www.w3.org/2000/svg" viewBox="0 0 200 200">
  <title>
    box-note
  </title>
  <g id="Canvas" transform="translate(-506 468)">
    <g id="g-1" transform="translate(239.9)">
      <title>
        circle
      </title>
      <circle cx="366.1" cy="-367.8" r="96.5" style="stroke:#000;stroke-width:6px;fill:#27ae60"/>
    </g>
    <g id="pushpin">
      <title>
        pin
      </title>
      <path id="Union" fill="#FFF" d="M57.7 2a6.7 6.7 0 10-9.5 9.5l1.6 1.5-26.4 26.4-1.5-1.6a6.7 6.7 0 10-9.5 9.5l8.9 8.9L0 85l29.4-20.6 8.3 8.2a6.7 6.7 0 109.5-9.5L46 62l26.3-26.3 1.2 1.2a6.7 6.7 0 109.5-9.5l-1.2-1.2L59.3 3.5 57.7 2z" transform="translate(569 -417.4)"/>
      <path id="Vector" d="M101.3 33.3L69.7 1.7a6 6 0 00-8.4 0l-1.7 1.8c-1.8 1.7-3 4.7-3 7.2v6c0 .8-.6 2.3-1.2 3L38.7 36.1c-.6.6-2.1 1.3-3 1.3h-6c-2.4 0-5.4 1.2-7.1 3l-1.7 1.7a6 6 0 000 8.4L30 60 .6 98.2a3 3 0 004.2 4.2l38.3-29.5 9.3 9.2a6 6 0 008.4 0l1.7-1.7c1.8-1.7 3-4.7 3-7.2v-6c0-.8.7-2.3 1.3-3l16.6-16.6c.6-.6 2.1-1.2 3-1.2h6c2.4 0 5.4-1.2 7.1-3l1.8-1.7a6 6 0 000-8.4zm-82 50.4l15-19.6 4.6 4.6-19.6 15zm76-44.5c-.6.6-2.1 1.3-3 1.3h-6c-2.4 0-5.4 1.2-7.1 3L62.5 60c-1.7 1.7-3 4.7-3 7.2v6c0 .8-.6 2.3-1.2 2.9l-1.7 1.7L25 46.4l1.7-1.7c.6-.6 2.1-1.3 3-1.3h6c2.4 0 5.4-1.2 7.1-3l16.7-16.6c1.7-1.7 3-4.7 3-7.2v-6c0-.8.6-2.3 1.2-2.9L65.5 6 97 37.5l-1.7 1.7z" transform="translate(556 -422)"/>
    </g>
  </g>
</svg>
